X:1
T:Title
%%score { ( 1 3 ) | ( 2 4 ) }
L:1/8
Q:1/4=90
M:6/8
K:Bb
V:1 treble nm="Grand Piano"
V:3 treble 
V:2 bass 
V:4 bass 
V:1
 [B,EG][A,E^F][B,EG] [EGB]2 [B,EG] | [B,DG]2 [_A,DF] [G,E]2 [B,E] | [_A,E_A][EB][Ec] [EB]2 [EG] | %3
w: Mary~Hubbert~Mumford * * * *|||
[M:5/8] [DF]-[DF]- [DF]3 |[M:1/8] [DF] |[M:3/4] [EG]2 [EG] [FB]2 [FB] | [Ee]2 [Ee] [Ec]2 [Ec] | %7
w: ||||
 [EB][B,EG] [G,E] [A,EF]2 [B,DG] | E6 | c=B c e2 c | c2 B B3 | AG Fe dc | B2- [EB-] [FB]3 | %13
w: ||||||
 G^F GB GE |[M:15/16] c>=Bce3/2- e3 |[M:3/4] B<B E[DG] [DG]>[DF][Q:1/4=84][Q:1/4=79][Q:1/4=73] | %16
w: |||
 E6 |] %17
w: |
V:2
 E,E,E, E,2 E, | B,,2 B,, E,2 _D, | C,[B,,G,][_A,,_A,] [E,G,]2 [E,B,] | %3
[M:5/8] [B,,B,]-[B,,B,]- [B,,B,]3 |[M:1/8] [B,,B,] |[M:3/4] [E,B,]2 [E,B,] [D,B,]2 [D,F,] | %6
 [C,G,]2 [G,,B,] [_A,,_A,]2 [=A,,^F,] | [B,,G,]B,, C, F,,2 B,, | [E,G,B,]6 | %9
 [_A,E_A][A,DA] [A,EA] [A,CA]2 [A,E] | [E,_A,E]2 [E,G,E] [E,G,E]3 | %11
 [F,E][F,G,E] [F,A,E][F,CF] [F,B,F][F,A,E] | z F, G, _A,3 | %13
 [E,B,E][E,A,E] [E,B,E][G,_DE] [E,DE][K:treble][G,D] | %14
[M:15/16] [_A,CE]>[A,DF][A,E_A][=A,C^F]3/2- [A,CF]3 | %15
[M:3/4] [B,EG]<[B,EG][K:bass] [C,A,][B,,B,] [B,,B,]>[B,,_A,] | [E,G,]6 |] %17
V:3
 x6 | x6 | x6 |[M:5/8] x5 |[M:1/8] x |[M:3/4] x6 | x6 | x6 | x6 | x6 | x6 | x6 | .[B,D]2 z2 z2 | %13
 x6 |[M:15/16] x15/2 |[M:3/4] x6 | x6 |] %17
V:4
 x6 | x6 | x6 |[M:5/8] x5 |[M:1/8] x |[M:3/4] x6 | x6 | x6 | x6 | x6 | x6 | x6 | B,,6 | %13
 x5[K:treble] x |[M:15/16] x15/2 |[M:3/4] x2[K:bass] x4 | x6 |] %17

